X:1
T:Title
%%score { ( 1 3 4 ) | ( 2 5 ) }
L:1/8
M:3/4
K:Bb
V:1 treble nm="Grand Piano"
V:3 treble 
V:4 treble 
V:2 bass 
V:5 bass 
V:1
 z2 z[Q:1/4=84] F FF | [DB]3 [DF] ED | [A,C]3 [CE] EE | [Ec]3 [EA] FE |[M:3/8] D3 | [DF]FF | %6
[M:3/4] z2 z d ed | [EG]3 [EB] AG |[M:7/8] F3 [Fd][Ec]3/2B3/2 | %9
[M:7/16] [DB]/-[DB]/-[DB]/-[DB]-<[DB] |[M:3/8] [DFB][Fd][DFB] |[M:3/4] [EA]-[CE-A-] [CEA]A GE | %12
 [DF]4 z2 | z E EG [=Ed][Ec] |[M:13/16] c/-c/-c/-c-<c z/ z/ z/ z/ z |[M:3/4] [Fd]4 z2 | G4 z2 | %17
[M:27/32] F/4-F/4-F/4-F/4-F/4-F/4-F/4-F/4-F/-<F/ z/4 z/4 z/ c/4-c/4-c/4-c/4-c/4-c/4-c/-<c/ z/4 | %18
[M:3/8] [DB]3 |] %19
V:2
 z2 z D DD | B,,F, B,F, CB, | F,,C, F,C, CC | F,,C, F,C, DC |[M:3/8] B,,F,B, | F,DD | %6
[M:3/4] G,,D, z[K:treble] F GF | C,G, CG, _DD |[M:7/8] F,B,D B, z z/ D3/2 |[M:7/16] B,,F,B,3/2 | %10
[M:3/8] B,,[B,,B,]B,, |[M:3/4] F,F, F,[F,CE] [F,A,E][F,A,] | [B,,B,]B,, B,,[B,,B,] [B,,B,][B,,B,] | %13
 [E,B,E][E,B,] [E,B,][E,B,E] [C,B,][C,B,] |[M:13/16] [F,A,F][G,B,][A,C]3/2F,=E,F, | %15
[M:3/4] [B,,B,]F, z[K:treble] [B,F] [G,=B,G][G,B,F] | [C,C][C,C] [C,C][E,G,E] [=E,A,_D][E,A,D] | %17
[M:27/32] [F,B,]/-<[F,B,]/ z/4 z/4 z/4 z/4 z/4 z/4 z/4 z/4 z/4 z/4 z/ [F,A,E]/4-[F,A,E]/4-[F,A,E]/4-[F,A,E]/4-[F,A,E]/4-[F,A,E]/4-[F,A,E]/-<[F,A,E]/ z/4 | %18
[M:3/8] [B,,B,]3 |] %19
V:3
 x6 | x6 | x6 | x6 |[M:3/8] B,2 z | x3 |[M:3/4] [Fd]4 z2 | x6 |[M:7/8] D2 z z z z2 |[M:7/16] x7/2 | %10
[M:3/8] x3 |[M:3/4] .C2 z2 z2 | z B, B,[DF] [_D=E][=DF] | G4 z2 |[M:13/16] z =E_E3/2F=EF | %15
[M:3/4] z B, B,d ed | EE EB AG | %17
[M:27/32] z/4 z/4 z/ B,/-<B,/B,/-<B,/d/-<d/ z/4 z/4 z/4 z/4 z/4 z/4 z/ [DB]3/4 |[M:3/8] x3 |] %19
V:4
 x6 | x6 | x6 | x6 |[M:3/8] x3 | x3 |[M:3/4] z2 =B,2 z2 | x6 |[M:7/8] x7 |[M:7/16] x7/2 | %10
[M:3/8] x3 |[M:3/4] x6 | x6 | x6 |[M:13/16] x13/2 |[M:3/4] x6 | x6 |[M:27/32] x27/4 |[M:3/8] x3 |] %19
V:5
 x6 | x6 | x6 | x6 |[M:3/8] x3 | x3 |[M:3/4] z2 G,2[K:treble] z2 | x6 |[M:7/8] z z z2 F,3 | %9
[M:7/16] x7/2 |[M:3/8] x3 |[M:3/4] x6 | x6 | x6 |[M:13/16] x13/2 |[M:3/4] x3[K:treble] x3 | x6 | %17
[M:27/32] D/-<D/-[F,D]/-<[F,D-]/[F,D]/-<[F,D]/[F,B,F]/-<[F,B,F]/ z/4 z/4 z/4 z/4 z/4 z/4 z/ [B,,B,]3/4 | %18
[M:3/8] x3 |] %19

